public/logos/BX.svg

<?xml version="1.0" encoding="UTF-8"?>
<svg xmlns="http://www.w3.org/2000/svg" xmlns:xlink="http://www.w3.org/1999/xlink" width="176pt" height="54.59pt" viewBox="0 0 176 54.59" version="1.1">
<defs>
<clipPath id="clip1">
  <path d="M 154 30 L 176 30 L 176 54.589844 L 154 54.589844 Z M 154 30 "/>
</clipPath>
<clipPath id="clip2">
  <path d="M 56 30 L 77 30 L 77 54.589844 L 56 54.589844 Z M 56 30 "/>
</clipPath>
<clipPath id="clip3">
  <path d="M 79 30 L 102 30 L 102 54.589844 L 79 54.589844 Z M 79 30 "/>
</clipPath>
<clipPath id="clip4">
  <path d="M 105 29 L 126 29 L 126 54.589844 L 105 54.589844 Z M 105 29 "/>
</clipPath>
<clipPath id="clip5">
  <path d="M 126 30 L 152 30 L 152 54.589844 L 126 54.589844 Z M 126 30 "/>
</clipPath>
<clipPath id="clip6">
  <path d="M 29 30 L 46 30 L 46 54.589844 L 29 54.589844 Z M 29 30 "/>
</clipPath>
<clipPath id="clip7">
  <path d="M 0 30 L 19 30 L 19 54.589844 L 0 54.589844 Z M 0 30 "/>
</clipPath>
<clipPath id="clip8">
  <path d="M 21 30 L 25 30 L 25 54.589844 L 21 54.589844 Z M 21 30 "/>
</clipPath>
</defs>
<g id="surface1">
<path style=" stroke:none;fill-rule:nonzero;fill:rgb(15.589905%,16.877747%,44.102478%);fill-opacity:1;" d="M 176 9.167969 C 175.726562 9.660156 175.515625 10.199219 175.171875 10.632812 C 170.335938 16.761719 164.035156 20.238281 156.265625 21.085938 C 148.90625 21.886719 141.816406 20.570312 134.84375 18.402344 C 128.882812 16.550781 122.988281 14.445312 116.832031 13.335938 C 102.496094 10.75 90.601562 15.160156 81.074219 26.113281 C 80.816406 26.410156 80.570312 26.726562 80.316406 27.03125 C 80.300781 27.046875 80.269531 27.050781 80.070312 27.128906 C 82.921875 21.667969 86.933594 17.46875 92.007812 13.996094 C 91.398438 13.847656 90.957031 13.746094 90.515625 13.628906 C 87.101562 12.714844 84.234375 10.773438 81.34375 8.847656 C 79.015625 7.292969 76.707031 5.65625 74.214844 4.417969 C 71.074219 2.863281 67.6875 2.5 64.253906 3.5625 C 63.902344 3.671875 63.566406 3.832031 63.230469 3.988281 C 63.070312 4.066406 62.929688 4.191406 62.75 4.316406 C 62.855469 4.410156 62.921875 4.496094 63.011719 4.542969 C 66.878906 6.503906 69.273438 9.722656 70.855469 13.65625 C 72.300781 17.238281 72.859375 20.984375 73.050781 24.917969 C 72.90625 24.8125 72.816406 24.777344 72.777344 24.710938 C 69.84375 20.027344 65.464844 17.460938 60.207031 16.289062 C 53.914062 14.890625 47.671875 15.484375 41.519531 17.152344 C 38.5625 17.953125 35.683594 19.054688 32.738281 19.902344 C 27.429688 21.425781 22.054688 22.035156 16.589844 20.734375 C 14.089844 20.136719 11.78125 19.097656 9.789062 17.453125 C 9.253906 17.011719 8.828125 16.433594 8.355469 15.917969 C 8.40625 15.847656 8.460938 15.773438 8.515625 15.699219 C 8.84375 15.855469 9.191406 15.988281 9.503906 16.171875 C 13.257812 18.40625 17.335938 19.09375 21.636719 18.777344 C 26.679688 18.402344 31.414062 16.785156 36.148438 15.175781 C 39.480469 14.046875 42.8125 12.929688 46.328125 12.464844 C 52.972656 11.59375 59.242188 12.726562 65.097656 15.988281 C 66.636719 16.84375 68.066406 17.898438 69.550781 18.863281 C 69.535156 18.886719 69.59375 18.835938 69.585938 18.8125 C 68.226562 15.230469 66.582031 11.808594 63.917969 8.980469 C 61.304688 6.207031 58.058594 4.675781 54.300781 4.234375 C 52.867188 4.066406 51.410156 4.089844 49.960938 4.011719 C 49.742188 4 49.523438 3.929688 49.304688 3.886719 C 49.382812 3.652344 49.394531 3.359375 49.546875 3.191406 C 50.84375 1.769531 52.410156 1.074219 54.375 1.453125 C 55.390625 1.648438 56.414062 1.769531 57.433594 1.929688 C 58.582031 2.109375 59.65625 1.953125 60.78125 1.601562 C 62.71875 0.996094 64.695312 0.449219 66.695312 0.152344 C 70.167969 -0.367188 73.449219 0.46875 76.449219 2.230469 C 78.613281 3.5 80.691406 4.917969 82.773438 6.324219 C 85.921875 8.441406 89.203125 10.191406 93.039062 10.703125 C 95.359375 11.011719 97.640625 10.917969 99.867188 10.230469 C 109.230469 7.339844 118.433594 7.832031 127.546875 11.34375 C 132.1875 13.128906 136.851562 14.855469 141.574219 16.402344 C 146.339844 17.964844 151.265625 18.636719 156.296875 18.164062 C 162.636719 17.566406 168.144531 14.976562 173.097656 11.085938 C 173.984375 10.390625 174.851562 9.671875 175.726562 8.960938 C 175.816406 9.03125 175.910156 9.101562 176 9.167969 "/>
<g clip-path="url(#clip1)" clip-rule="nonzero">
<path style=" stroke:none;fill-rule:nonzero;fill:rgb(15.589905%,16.877747%,44.102478%);fill-opacity:1;" d="M 160.476562 54.058594 C 158.34375 54.058594 156.367188 54.058594 154.3125 54.058594 C 154.3125 46.121094 154.3125 38.199219 154.3125 30.128906 C 154.785156 30.128906 155.273438 30.128906 155.765625 30.128906 C 157.117188 30.128906 158.464844 30.15625 159.816406 30.117188 C 160.363281 30.101562 160.65625 30.296875 160.941406 30.761719 C 163.671875 35.199219 166.429688 39.621094 169.183594 44.050781 C 169.304688 44.246094 169.4375 44.4375 169.734375 44.613281 C 169.753906 44.320312 169.789062 44.027344 169.789062 43.734375 C 169.792969 39.578125 169.789062 35.421875 169.789062 31.265625 C 169.789062 30.132812 169.792969 30.132812 170.964844 30.128906 C 172.3125 30.128906 173.664062 30.128906 175.011719 30.128906 C 175.296875 30.128906 175.578125 30.128906 175.902344 30.128906 C 175.902344 38.160156 175.902344 46.089844 175.902344 54.097656 C 173.972656 54.097656 172.097656 54.125 170.226562 54.070312 C 169.984375 54.0625 169.6875 53.703125 169.519531 53.4375 C 166.730469 49.007812 163.953125 44.5625 161.175781 40.121094 C 160.992188 39.832031 160.796875 39.550781 160.476562 39.066406 C 160.476562 44.175781 160.476562 49.066406 160.476562 54.058594 "/>
</g>
<g clip-path="url(#clip2)" clip-rule="nonzero">
<path style=" stroke:none;fill-rule:nonzero;fill:rgb(15.589905%,16.877747%,44.102478%);fill-opacity:1;" d="M 63.089844 39.363281 C 64.613281 39.234375 66.042969 39.214844 67.433594 38.96875 C 68.425781 38.789062 68.917969 37.949219 68.914062 36.972656 C 68.910156 35.949219 68.402344 35.128906 67.355469 34.960938 C 65.972656 34.734375 64.550781 34.71875 63.089844 34.609375 C 63.089844 36.257812 63.089844 37.699219 63.089844 39.363281 Z M 65.3125 43.871094 C 65.308594 43.898438 65.304688 43.929688 65.300781 43.957031 C 64.800781 43.957031 64.296875 43.980469 63.796875 43.949219 C 63.265625 43.917969 63.035156 44.089844 63.050781 44.664062 C 63.082031 46.0625 63.078125 47.464844 63.050781 48.863281 C 63.039062 49.429688 63.269531 49.601562 63.800781 49.585938 C 64.699219 49.554688 65.605469 49.644531 66.492188 49.550781 C 67.320312 49.464844 68.1875 49.332031 68.929688 48.984375 C 70.089844 48.445312 70.179688 47.3125 70.0625 46.183594 C 69.957031 45.160156 69.394531 44.453125 68.367188 44.246094 C 67.363281 44.046875 66.332031 43.992188 65.3125 43.871094 Z M 71.894531 41.054688 C 72.234375 41.226562 72.441406 41.335938 72.648438 41.433594 C 77.464844 43.628906 76.964844 49.476562 74.039062 51.9375 C 72.308594 53.394531 70.261719 53.964844 68.089844 54.023438 C 64.546875 54.121094 61 54.074219 57.457031 54.109375 C 56.746094 54.117188 56.886719 53.640625 56.886719 53.246094 C 56.882812 48.03125 56.882812 42.820312 56.882812 37.605469 C 56.882812 35.359375 56.886719 33.109375 56.882812 30.859375 C 56.882812 30.480469 56.839844 30.113281 57.421875 30.125 C 61.152344 30.195312 64.882812 30.160156 68.605469 30.347656 C 70.621094 30.449219 72.480469 31.207031 73.785156 32.910156 C 75.75 35.476562 75.132812 38.992188 72.421875 40.726562 C 72.289062 40.808594 72.15625 40.890625 71.894531 41.054688 "/>
</g>
<g clip-path="url(#clip3)" clip-rule="nonzero">
<path style=" stroke:none;fill-rule:nonzero;fill:rgb(15.589905%,16.877747%,44.102478%);fill-opacity:1;" d="M 80 30.183594 C 82.0625 30.183594 84.085938 30.183594 86.207031 30.183594 C 86.21875 30.503906 86.246094 30.808594 86.246094 31.117188 C 86.25 35.617188 86.246094 40.117188 86.253906 44.617188 C 86.253906 45.171875 86.285156 45.730469 86.355469 46.28125 C 86.40625 46.695312 86.5 47.121094 86.65625 47.507812 C 87.253906 49 88.851562 49.765625 90.984375 49.617188 C 92.945312 49.484375 94.210938 48.578125 94.570312 46.949219 C 94.730469 46.230469 94.785156 45.480469 94.789062 44.742188 C 94.808594 40.191406 94.816406 35.636719 94.78125 31.082031 C 94.777344 30.3125 94.988281 30.082031 95.757812 30.113281 C 97.238281 30.171875 98.722656 30.128906 100.203125 30.132812 C 100.488281 30.132812 100.773438 30.15625 101.09375 30.167969 C 101.113281 30.4375 101.144531 30.644531 101.144531 30.847656 C 101.128906 35.824219 101.144531 40.800781 101.09375 45.777344 C 101.042969 51.089844 97.558594 53.765625 92.878906 54.410156 C 90.296875 54.765625 87.742188 54.628906 85.296875 53.664062 C 81.699219 52.246094 80.007812 49.46875 79.960938 45.699219 C 79.898438 40.671875 79.945312 35.640625 79.949219 30.609375 C 79.949219 30.484375 79.976562 30.355469 80 30.183594 "/>
</g>
<g clip-path="url(#clip4)" clip-rule="nonzero">
<path style=" stroke:none;fill-rule:nonzero;fill:rgb(15.589905%,16.877747%,44.102478%);fill-opacity:1;" d="M 124.238281 37.492188 C 122.324219 37.492188 120.457031 37.492188 118.550781 37.492188 C 118.496094 37.214844 118.515625 36.921875 118.390625 36.707031 C 118.070312 36.152344 117.808594 35.449219 117.3125 35.136719 C 115.890625 34.226562 114.328125 34.273438 112.867188 35.082031 C 111.601562 35.78125 111.605469 37.078125 112.894531 37.714844 C 114.121094 38.320312 115.453125 38.703125 116.730469 39.207031 C 118.328125 39.839844 119.960938 40.398438 121.492188 41.160156 C 126.296875 43.535156 125.8125 49.851562 122.351562 52.542969 C 120.410156 54.050781 118.152344 54.5 115.792969 54.5625 C 113.304688 54.628906 110.878906 54.273438 108.707031 52.921875 C 106.621094 51.625 105.445312 49.730469 105.054688 47.328125 C 105.019531 47.121094 105.019531 46.90625 105.015625 46.695312 C 105.015625 46.566406 105.039062 46.441406 105.058594 46.265625 C 106.925781 46.265625 108.765625 46.265625 110.605469 46.265625 C 111.816406 49.3125 114.292969 50.488281 117.214844 49.394531 C 117.460938 49.300781 117.703125 49.1875 117.921875 49.042969 C 118.964844 48.359375 119.039062 47.289062 118.019531 46.585938 C 117.375 46.140625 116.628906 45.828125 115.902344 45.523438 C 113.832031 44.648438 111.691406 43.925781 109.683594 42.929688 C 106.394531 41.296875 105.117188 38.503906 106 35.117188 C 106.664062 32.570312 108.554688 31.179688 110.914062 30.363281 C 113.882812 29.335938 116.839844 29.425781 119.746094 30.640625 C 122.609375 31.835938 124.28125 34.359375 124.238281 37.492188 "/>
</g>
<g clip-path="url(#clip5)" clip-rule="nonzero">
<path style=" stroke:none;fill-rule:nonzero;fill:rgb(15.589905%,16.877747%,44.102478%);fill-opacity:1;" d="M 141.417969 44.382812 C 140.59375 41.988281 139.8125 39.738281 139.035156 37.484375 C 138.960938 37.484375 138.886719 37.488281 138.808594 37.488281 C 138.039062 39.753906 137.269531 42.023438 136.472656 44.382812 C 138.195312 44.382812 139.71875 44.382812 141.417969 44.382812 Z M 126.59375 54.128906 C 127.730469 51.152344 128.796875 48.339844 129.875 45.53125 C 131.75 40.644531 133.640625 35.765625 135.492188 30.871094 C 135.707031 30.300781 135.984375 30.101562 136.582031 30.117188 C 138.195312 30.15625 139.808594 30.140625 141.425781 30.121094 C 141.839844 30.121094 142.09375 30.210938 142.257812 30.644531 C 145.183594 38.273438 148.125 45.890625 151.058594 53.511719 C 151.121094 53.679688 151.144531 53.863281 151.210938 54.128906 C 149.117188 54.128906 147.089844 54.140625 145.058594 54.105469 C 144.894531 54.101562 144.664062 53.804688 144.589844 53.597656 C 144.152344 52.378906 143.730469 51.152344 143.347656 49.914062 C 143.195312 49.421875 142.9375 49.269531 142.433594 49.277344 C 140.105469 49.296875 137.777344 49.300781 135.449219 49.273438 C 134.902344 49.265625 134.652344 49.445312 134.496094 49.96875 C 134.136719 51.1875 133.722656 52.386719 133.289062 53.578125 C 133.207031 53.800781 132.933594 54.101562 132.746094 54.105469 C 130.738281 54.144531 128.730469 54.128906 126.59375 54.128906 "/>
</g>
<g clip-path="url(#clip6)" clip-rule="nonzero">
<path style=" stroke:none;fill-rule:nonzero;fill:rgb(15.589905%,16.877747%,44.102478%);fill-opacity:1;" d="M 32.234375 36.929688 C 32.234375 38.253906 32.238281 39.578125 32.230469 40.898438 C 32.230469 41.289062 32.292969 41.582031 32.78125 41.566406 C 34.417969 41.507812 36.070312 41.570312 37.695312 41.390625 C 40.03125 41.128906 41.527344 39.40625 41.613281 37.121094 C 41.707031 34.707031 40.570312 33.109375 38.117188 32.679688 C 36.359375 32.375 34.539062 32.441406 32.746094 32.34375 C 32.226562 32.316406 32.234375 32.679688 32.234375 33.039062 C 32.234375 34.335938 32.234375 35.632812 32.234375 36.929688 Z M 39.445312 43.453125 C 41.542969 47.015625 43.59375 50.496094 45.730469 54.121094 C 44.640625 54.121094 43.703125 54.164062 42.769531 54.09375 C 42.546875 54.074219 42.304688 53.710938 42.152344 53.457031 C 40.40625 50.527344 38.664062 47.589844 36.957031 44.636719 C 36.613281 44.042969 36.234375 43.742188 35.515625 43.804688 C 34.753906 43.871094 33.980469 43.863281 33.214844 43.808594 C 32.46875 43.753906 32.203125 43.988281 32.214844 44.773438 C 32.261719 47.527344 32.234375 50.28125 32.234375 53.035156 C 32.234375 53.347656 32.234375 53.664062 32.234375 54.054688 C 31.351562 54.054688 30.527344 54.054688 29.667969 54.054688 C 29.667969 46.113281 29.667969 38.179688 29.667969 30.238281 C 29.816406 30.195312 29.914062 30.140625 30.015625 30.144531 C 32.765625 30.195312 35.523438 30.144531 38.265625 30.332031 C 41.519531 30.558594 43.746094 32.589844 44.261719 35.515625 C 44.863281 38.929688 43.386719 41.691406 40.199219 43.097656 C 39.984375 43.191406 39.773438 43.296875 39.445312 43.453125 "/>
</g>
<g clip-path="url(#clip7)" clip-rule="nonzero">
<path style=" stroke:none;fill-rule:nonzero;fill:rgb(15.589905%,16.877747%,44.102478%);fill-opacity:1;" d="M 5.613281 45.398438 C 8.226562 45.398438 10.703125 45.398438 13.261719 45.398438 C 11.992188 41.394531 10.757812 37.503906 9.519531 33.613281 C 9.457031 33.609375 9.390625 33.605469 9.324219 33.605469 C 8.101562 37.496094 6.875 41.390625 5.613281 45.398438 Z M 18.808594 54.128906 C 17.984375 54.128906 17.21875 54.164062 16.464844 54.101562 C 16.273438 54.085938 16.023438 53.777344 15.941406 53.554688 C 15.339844 51.859375 14.75 50.164062 14.210938 48.449219 C 14.046875 47.933594 13.824219 47.734375 13.269531 47.738281 C 10.703125 47.765625 8.136719 47.761719 5.570312 47.742188 C 5.058594 47.734375 4.832031 47.914062 4.675781 48.402344 C 4.132812 50.085938 3.515625 51.746094 2.972656 53.433594 C 2.792969 53.984375 2.515625 54.1875 1.945312 54.144531 C 1.34375 54.097656 0.734375 54.132812 0 54.132812 C 0.425781 52.867188 0.816406 51.679688 1.222656 50.5 C 3.4375 44.023438 5.667969 37.550781 7.863281 31.066406 C 8.097656 30.363281 8.414062 29.988281 9.191406 30.125 C 9.449219 30.167969 9.722656 30.15625 9.984375 30.125 C 10.492188 30.0625 10.738281 30.285156 10.898438 30.761719 C 12.265625 34.820312 13.648438 38.871094 15.03125 42.925781 C 16.222656 46.429688 17.414062 49.929688 18.605469 53.433594 C 18.671875 53.628906 18.722656 53.832031 18.808594 54.128906 "/>
</g>
<g clip-path="url(#clip8)" clip-rule="nonzero">
<path style=" stroke:none;fill-rule:nonzero;fill:rgb(15.589905%,16.877747%,44.102478%);fill-opacity:1;" d="M 24.433594 30.128906 C 24.433594 30.546875 24.433594 30.855469 24.433594 31.164062 C 24.433594 38.472656 24.4375 45.777344 24.433594 53.085938 C 24.433594 54.101562 24.433594 54.101562 23.386719 54.101562 C 21.71875 54.105469 21.71875 54.105469 21.71875 52.429688 C 21.71875 45.46875 21.710938 38.503906 21.71875 31.542969 C 21.722656 29.882812 21.519531 30.160156 23.167969 30.128906 C 23.554688 30.125 23.945312 30.128906 24.433594 30.128906 "/>
</g>
</g>
</svg>

<svg xmlns="http://www.w3.org/2000/svg" width="176pt" height="72.787" viewBox="0 0 176 54.59"><defs><clipPath id="a"><path d="M154 30h22v24.59h-22Zm0 0"/></clipPath><clipPath id="b"><path d="M56 30h21v24.59H56Zm0 0"/></clipPath><clipPath id="c"><path d="M79 30h23v24.59H79Zm0 0"/></clipPath><clipPath id="d"><path d="M105 29h21v25.59h-21Zm0 0"/></clipPath><clipPath id="e"><path d="M126 30h26v24.59h-26Zm0 0"/></clipPath><clipPath id="f"><path d="M29 30h17v24.59H29Zm0 0"/></clipPath><clipPath id="g"><path d="M0 30h19v24.59H0Zm0 0"/></clipPath><clipPath id="h"><path d="M21 30h4v24.59h-4Zm0 0"/></clipPath></defs><path d="M176 9.168c-.273.492-.484 1.031-.828 1.465-4.836 6.129-11.137 9.605-18.906 10.453-7.36.8-14.45-.516-21.422-2.684-5.961-1.851-11.856-3.957-18.012-5.066-14.336-2.586-26.23 1.824-35.758 12.777-.258.297-.504.614-.758.918-.015.016-.046.02-.246.098 2.852-5.461 6.864-9.66 11.938-13.133-.61-.148-1.051-.25-1.492-.367-3.414-.914-6.282-2.856-9.172-4.781-2.328-1.555-4.637-3.192-7.13-4.43-3.14-1.555-6.526-1.918-9.96-.856-.352.11-.688.27-1.024.426-.16.078-.3.203-.48.328.105.094.172.18.262.227 3.867 1.96 6.261 5.18 7.843 9.113 1.446 3.582 2.004 7.328 2.196 11.262-.145-.105-.235-.14-.274-.207-2.933-4.684-7.312-7.25-12.57-8.422-6.293-1.398-12.535-.805-18.687.863-2.958.801-5.836 1.903-8.782 2.75-5.308 1.524-10.683 2.133-16.148.832-2.5-.597-4.809-1.636-6.8-3.28-.536-.442-.962-1.02-1.435-1.536l.16-.219c.329.156.676.29.989.473 3.754 2.234 7.832 2.922 12.133 2.605 5.043-.375 9.777-1.992 14.511-3.601 3.332-1.13 6.664-2.246 10.18-2.711 6.645-.871 12.914.262 18.77 3.523 1.539.856 2.968 1.91 4.453 2.875-.016.024.043-.027.035-.05-1.36-3.583-3.004-7.004-5.668-9.833-2.613-2.773-5.86-4.304-9.617-4.746-1.434-.168-2.89-.144-4.34-.222-.219-.012-.438-.082-.656-.125.078-.235.09-.528.242-.696 1.297-1.421 2.863-2.117 4.828-1.738 1.016.195 2.04.317 3.059.477 1.148.18 2.222.023 3.347-.328C62.72.996 64.695.449 66.695.152c3.473-.52 6.754.317 9.754 2.078 2.164 1.27 4.242 2.688 6.324 4.094 3.149 2.117 6.43 3.867 10.266 4.38 2.32.308 4.602.214 6.828-.474 9.363-2.89 18.567-2.398 27.68 1.114 4.64 1.785 9.305 3.511 14.027 5.058 4.766 1.563 9.692 2.235 14.723 1.762 6.34-.598 11.848-3.187 16.8-7.078.887-.695 1.755-1.414 2.63-2.125q.137.106.273.207" style="stroke:none;fill-rule:nonzero;fill:#282b70;fill-opacity:1"/><g clip-path="url(#a)"><path d="M160.477 54.059h-6.165v-23.93h1.454c1.351 0 2.699.027 4.05-.012.547-.015.84.18 1.125.645 2.73 4.437 5.489 8.86 8.243 13.289.12.195.254.386.55.562.02-.293.055-.586.055-.879.004-4.156 0-8.312 0-12.468 0-1.133.004-1.133 1.176-1.137h4.937v23.969c-1.93 0-3.804.027-5.675-.028-.243-.008-.54-.367-.707-.633-2.79-4.43-5.567-8.874-8.344-13.316-.184-.289-.38-.57-.7-1.055z" style="stroke:none;fill-rule:nonzero;fill:#282b70;fill-opacity:1"/></g><g clip-path="url(#b)"><path d="M63.09 39.363c1.523-.129 2.953-.148 4.344-.394.992-.18 1.484-1.02 1.48-1.996-.004-1.024-.512-1.844-1.559-2.012-1.382-.227-2.804-.242-4.265-.352zm2.222 4.508-.011.086c-.5 0-1.004.023-1.504-.008-.531-.031-.762.14-.746.715.031 1.398.027 2.8 0 4.2-.012.566.219.738.75.722.898-.031 1.804.059 2.691-.035.828-.086 1.695-.219 2.438-.567 1.16-.539 1.25-1.672 1.132-2.8-.105-1.024-.667-1.73-1.695-1.938-1.004-.2-2.035-.254-3.055-.375m6.583-2.816c.34.172.546.28.753.379 4.817 2.195 4.317 8.043 1.391 10.504-1.73 1.457-3.777 2.027-5.95 2.085-3.542.098-7.089.051-10.632.086-.71.008-.57-.468-.57-.863q-.005-7.82-.004-15.64c0-2.247.004-4.497 0-6.747 0-.379-.043-.746.539-.734 3.73.07 7.46.035 11.183.223 2.016.101 3.875.859 5.18 2.562 1.965 2.567 1.348 6.082-1.363 7.817-.133.082-.266.164-.527.328" style="stroke:none;fill-rule:nonzero;fill:#282b70;fill-opacity:1"/></g><g clip-path="url(#c)"><path d="M80 30.184h6.207c.012.32.04.625.04.933.003 4.5 0 9 .007 13.5 0 .555.031 1.113.101 1.664.051.414.145.84.301 1.227.598 1.492 2.196 2.258 4.328 2.11 1.961-.134 3.227-1.04 3.586-2.669.16-.719.215-1.469.22-2.207.019-4.55.026-9.105-.009-13.66-.004-.77.207-1 .977-.969 1.48.059 2.965.016 4.445.02.285 0 .57.023.89.035.02.27.052.477.052.68-.016 4.976 0 9.953-.051 14.93-.051 5.312-3.535 7.988-8.215 8.632-2.582.356-5.137.219-7.582-.746-3.598-1.418-5.29-4.195-5.336-7.965-.063-5.027-.016-10.058-.012-15.09 0-.125.028-.254.051-.425" style="stroke:none;fill-rule:nonzero;fill:#282b70;fill-opacity:1"/></g><g clip-path="url(#d)"><path d="M124.238 37.492h-5.687c-.055-.277-.035-.57-.16-.785-.32-.555-.582-1.258-1.079-1.57-1.421-.91-2.984-.864-4.445-.055-1.265.7-1.262 1.996.028 2.633 1.226.605 2.558.988 3.835 1.492 1.598.633 3.23 1.191 4.762 1.953 4.805 2.375 4.32 8.692.86 11.383-1.942 1.508-4.2 1.957-6.559 2.02-2.488.066-4.914-.29-7.086-1.641-2.086-1.297-3.262-3.192-3.652-5.594-.035-.207-.035-.422-.04-.633 0-.129.024-.254.044-.43h5.546c1.211 3.047 3.688 4.223 6.61 3.13.246-.094.488-.208.707-.352 1.043-.684 1.117-1.754.098-2.457-.645-.445-1.391-.758-2.118-1.063-2.07-.875-4.21-1.597-6.218-2.593-3.29-1.633-4.567-4.426-3.684-7.813.664-2.547 2.555-3.937 4.914-4.754 2.969-1.027 5.926-.937 8.832.278 2.863 1.195 4.535 3.718 4.492 6.851" style="stroke:none;fill-rule:nonzero;fill:#282b70;fill-opacity:1"/></g><g clip-path="url(#e)"><path d="M141.418 44.383c-.824-2.395-1.606-4.645-2.383-6.899-.074 0-.148.004-.226.004-.77 2.266-1.54 4.535-2.336 6.895zm-14.824 9.746c1.136-2.977 2.203-5.79 3.281-8.598 1.875-4.886 3.766-9.765 5.617-14.66.215-.57.492-.77 1.09-.754 1.613.04 3.227.024 4.844.004.414 0 .668.09.832.524 2.926 7.628 5.867 15.246 8.8 22.867.063.168.087.351.153.617-2.094 0-4.121.012-6.152-.024-.164-.003-.395-.3-.47-.507a87 87 0 0 1-1.241-3.684c-.153-.492-.41-.644-.914-.637-2.329.02-4.657.024-6.985-.004-.547-.007-.797.172-.953.696a61 61 0 0 1-1.207 3.61c-.082.222-.355.523-.543.526-2.008.04-4.016.024-6.152.024" style="stroke:none;fill-rule:nonzero;fill:#282b70;fill-opacity:1"/></g><g clip-path="url(#f)"><path d="M32.234 36.93c0 1.324.004 2.648-.004 3.968 0 .391.063.684.551.668 1.637-.058 3.29.004 4.914-.175 2.336-.262 3.832-1.985 3.918-4.27.094-2.414-1.043-4.012-3.496-4.441-1.758-.305-3.578-.239-5.37-.336-.52-.028-.513.336-.513.695zm7.211 6.523 6.285 10.668c-1.09 0-2.027.043-2.96-.027-.223-.02-.465-.383-.618-.637a767 767 0 0 1-5.195-8.82c-.344-.594-.723-.895-1.441-.832-.762.066-1.536.058-2.301.004-.746-.055-1.012.18-1 .964.047 2.754.02 5.508.02 8.262v1.02h-2.567V30.238c.148-.043.246-.097.348-.093 2.75.05 5.507 0 8.25.187 3.254.227 5.48 2.258 5.996 5.184.601 3.414-.875 6.175-4.063 7.582-.215.093-.426.199-.754.355" style="stroke:none;fill-rule:nonzero;fill:#282b70;fill-opacity:1"/></g><g clip-path="url(#g)"><path d="M5.613 45.398h7.649c-1.27-4.003-2.504-7.894-3.742-11.785a3 3 0 0 0-.196-.008c-1.222 3.891-2.449 7.786-3.71 11.793m13.196 8.73c-.825 0-1.59.036-2.344-.026-.192-.016-.442-.325-.524-.547a148 148 0 0 1-1.73-5.106c-.164-.515-.387-.715-.941-.71-2.567.027-5.133.023-7.7.003-.511-.008-.738.172-.894.66-.543 1.684-1.16 3.344-1.703 5.032-.18.55-.457.754-1.028.71-.601-.046-1.21-.011-1.945-.011.426-1.266.816-2.453 1.223-3.633 2.215-6.477 4.445-12.95 6.64-19.434.235-.703.551-1.078 1.328-.941.258.043.532.031.793 0 .508-.062.754.16.914.637 1.368 4.058 2.75 8.11 4.133 12.164l3.574 10.508c.067.195.118.398.204.695" style="stroke:none;fill-rule:nonzero;fill:#282b70;fill-opacity:1"/></g><g clip-path="url(#h)"><path d="M24.434 30.129v1.035c0 7.309.003 14.613 0 21.922 0 1.016 0 1.016-1.047 1.016-1.668.003-1.668.003-1.668-1.672 0-6.961-.008-13.926 0-20.887.004-1.66-.2-1.383 1.449-1.414.387-.004.777 0 1.266 0" style="stroke:none;fill-rule:nonzero;fill:#282b70;fill-opacity:1"/></g></svg>
